X:257
T: ES GIENG EIN KNAB SPAZIEREN
N: E0131B
O: Europa, Mitteleuropa, Deutschland, Wuerttemberg
R: erzaehlendes Volks - Lied, Schalk -, Schelmen - Lied, Vergewaltigung
M: 4/4
L: 1/8
K: G
D2 | G2B2G2B2 | d2cBA2
d2 | edcBA2A2 | B4z2
AA | AAAAc2BA | B3cd2
d2 | e2e2gfee | d4z2
dc | B2B2d2dc | B4z2

@@@ Tune index: 3907
